src/images/svg/symbols/markets-stocks-and-indices/american-stocks/stocks-jonhson-johnson.svg

<svg width="32" height="32" viewBox="0 0 32 32" fill="none" xmlns="http://www.w3.org/2000/svg">
<path d="M0 16C0 7.16344 7.16344 0 16 0C24.8366 0 32 7.16344 32 16C32 24.8366 24.8366 32 16 32C7.16344 32 0 24.8366 0 16Z" fill="#E92431"/>
<path d="M25.6442 13.5192C25.5649 13.5769 25.4936 13.6448 25.4322 13.7212L24.9961 14.1273C24.7961 14.3173 24.5961 14.5073 24.4101 14.7114C24.3721 14.7494 23.71 15.3574 23.71 15.3574C23.6099 14.507 23.5438 13.6529 23.512 12.7971C23.4646 11.871 23.4359 10.9441 23.426 10.0168C23.412 9.10472 23.426 8.19261 23.574 7.28051C23.624 6.92447 24.174 5.72033 23.3499 6.07437C21.5917 6.83446 18.9994 9.06671 18.9494 12.6551C18.9374 13.4152 19.0375 14.1773 19.2735 14.9134C19.3235 15.0774 19.3855 15.2294 19.4475 15.3934C19.4975 15.5095 19.6735 15.7495 19.6735 15.8775C19.6735 16.1435 18.9874 16.3215 18.7494 16.3716C18.5453 16.4203 18.337 16.4497 18.1273 16.4596C17.8893 16.4856 17.6773 16.5616 17.6033 16.3336C17.5033 16.0035 17.4793 15.5975 17.2913 15.1794C16.8432 14.2153 16.0711 13.4932 15.023 13.3392C14.0889 13.2132 13.1528 13.5812 12.3307 14.0133C11.8066 14.2933 11.2946 14.6094 10.8105 14.9514C10.7225 14.1513 10.6345 13.3152 10.5725 12.3771C10.4345 10.3109 10.3725 8.34463 10.8845 6.3404C10.9085 6.25239 10.9225 6.15038 10.8725 6.07437C10.7965 5.96035 10.6225 5.99836 10.4985 6.05037C9.03549 6.65253 7.80967 7.71677 7.00807 9.08071C6.20319 10.4629 5.86643 12.0681 6.04796 13.6572C6.25998 15.4835 7.23209 17.2577 8.82828 18.1078C8.05109 19.3061 7.45777 20.6141 7.06807 21.9882C6.82004 22.8643 6.67003 23.7764 6.82004 24.6645C6.92006 25.2346 7.22009 25.8686 7.78015 25.9847C8.25421 26.0847 8.72826 25.7686 9.0763 25.4246C10.1864 24.3345 10.7345 22.7883 10.9345 21.2541C11.0945 19.974 11.1345 18.6938 11.0345 17.3997L10.9585 16.5116C10.8845 15.7755 11.4086 15.3454 11.9446 14.9394C12.3187 14.6594 12.6907 14.3933 13.1148 14.2153C13.5388 14.0393 14.0009 13.9233 14.4609 13.9873C15.121 14.0773 15.8591 14.5333 16.1571 15.1534C16.2191 15.2934 16.4572 15.7875 16.1331 15.7635C16.0571 15.7635 15.9831 15.7115 15.9211 15.6735C15.3038 15.3237 14.5965 15.1649 13.8889 15.2174C13.5914 15.2408 13.3043 15.337 13.0528 15.4975C12.8047 15.6735 12.6287 15.9655 12.6667 16.2695C12.6787 16.4496 12.7667 16.6116 12.8667 16.7656C13.0219 17.0272 13.2407 17.2453 13.5028 17.3997C14.1009 17.7277 14.811 17.5757 15.459 17.5517C15.7792 17.5287 16.1 17.585 16.3931 17.7157C16.5184 17.7647 16.6302 17.8428 16.7192 17.9437C16.8432 18.0958 16.9192 18.4518 17.0792 18.4378C17.2913 18.4258 17.3673 17.9437 17.4033 17.8037C17.4653 17.5897 17.4793 17.2717 17.7653 17.1836C18.1894 17.0556 18.6254 16.9436 19.0615 16.8416C19.2735 16.7896 19.4975 16.7516 19.7215 16.7136C19.8715 16.6896 20.0336 16.6376 20.1836 16.7016C20.4076 16.8016 20.5336 17.0556 20.6956 17.2337C20.8957 17.4617 21.1317 17.6537 21.3797 17.8037C21.4297 17.8297 21.8178 18.0317 21.7918 18.0838C21.7538 18.1598 21.7038 18.2238 21.6678 18.2998C20.5456 20.188 20.2476 21.1781 19.9596 22.3062C19.5355 23.9544 19.6735 25.7166 20.7076 25.9327C22.1278 26.2367 23.588 23.6884 23.912 21.2281C24.124 19.5679 23.912 17.5877 23.872 15.9155C23.872 15.9155 24.2721 15.5215 24.3841 15.4074C24.6721 15.1274 24.9581 14.8374 25.2322 14.5473C25.3822 14.3933 25.5182 14.2413 25.6682 14.1013C25.7802 13.9873 25.9422 13.8613 25.9923 13.6952C26.0183 13.5952 25.9803 13.4432 25.8562 13.4292C25.7817 13.4491 25.7103 13.4794 25.6442 13.5192ZM9.98641 22.3322C9.75038 24.8165 8.64025 25.0325 8.1422 24.8545C7.56813 24.6385 7.40611 22.8383 8.29221 20.568C8.71426 19.4779 9.25232 18.5138 9.73638 17.7277C9.96241 19.4019 10.1104 21.0381 9.98641 22.3322ZM10.2724 6.97447C9.94841 7.72256 9.31233 9.14272 9.22632 11.515C9.17632 13.0752 9.41234 14.9754 9.65037 16.8536C9.46235 17.1336 9.26433 17.4117 9.09031 17.7037C8.00418 16.9296 7.47012 15.3054 7.39411 12.7951C7.2681 9.04271 9.0763 7.1905 10.0604 6.72244C10.3104 6.59443 10.4345 6.62043 10.2724 6.97447ZM15.9951 16.8816C15.9711 16.9196 15.9211 16.9436 15.8591 16.9696C15.7027 16.9991 15.5427 17.0032 15.385 16.9816C15.0917 16.9718 14.8032 16.9031 14.5369 16.7796C14.3629 16.7011 14.2126 16.5784 14.1009 16.4236C14.0509 16.3235 14.0009 16.2095 14.0509 16.1075C14.0749 16.0435 14.1369 16.0075 14.2009 15.9675C14.3491 15.8987 14.5106 15.8631 14.6739 15.8631C14.8373 15.8631 14.9988 15.8987 15.147 15.9675C15.447 16.0955 15.6951 16.3235 15.9211 16.5636C16.0211 16.6636 16.0571 16.7916 15.9951 16.8816ZM22.9519 22.3342C22.7139 24.8185 21.6057 25.0345 21.1177 24.8565C20.5456 24.6405 20.3836 22.8403 21.2677 20.57C21.6918 19.4799 22.2278 18.5158 22.7139 17.7297C22.9139 19.4039 23.0759 21.0401 22.9519 22.3342ZM23.2379 6.97647C22.9139 7.72456 22.2658 9.14472 22.1898 11.517C22.1418 13.0772 22.3778 14.9774 22.6139 16.8556C22.4138 17.1356 22.2278 17.4137 22.0418 17.7057C20.9557 16.9316 20.4216 15.3074 20.3456 12.7971C20.2336 9.04471 22.0278 7.1925 23.0259 6.72444C23.2639 6.59643 23.386 6.62243 23.2379 6.97647Z" fill="white"/>
</svg>

<svg width="32" height="32" fill="none" xmlns="http://www.w3.org/2000/svg"><path d="M0 16C0 7.163 7.163 0 16 0s16 7.163 16 16-7.163 16-16 16S0 24.837 0 16Z" fill="#E92431"/><path d="M25.644 13.52c-.08.057-.15.125-.212.201l-.436.406c-.2.19-.4.38-.586.584-.038.038-.7.646-.7.646-.1-.85-.166-1.704-.198-2.56a68.75 68.75 0 0 1-.086-2.78c-.014-.912 0-1.824.148-2.736.05-.357.6-1.56-.224-1.207-1.758.76-4.35 2.993-4.4 6.581-.013.76.088 1.522.323 2.258.05.164.113.316.175.48.05.116.226.356.226.484 0 .266-.687.444-.925.495a3.364 3.364 0 0 1-.622.088c-.238.026-.45.102-.524-.126-.1-.33-.124-.736-.312-1.155-.448-.964-1.22-1.686-2.268-1.84-.934-.126-1.87.242-2.692.674-.524.28-1.036.596-1.52.938-.088-.8-.177-1.636-.239-2.574-.137-2.066-.2-4.032.313-6.037.024-.088.037-.19-.012-.266-.076-.114-.25-.076-.374-.024a7.249 7.249 0 0 0-3.49 3.03 7.42 7.42 0 0 0-.961 4.577c.212 1.826 1.184 3.6 2.78 4.45a14.303 14.303 0 0 0-1.76 3.881c-.248.876-.398 1.788-.248 2.677.1.57.4 1.204.96 1.32.474.1.948-.216 1.296-.56 1.11-1.09 1.659-2.637 1.858-4.17.16-1.281.2-2.561.1-3.855l-.075-.888c-.075-.737.45-1.167.986-1.573.374-.28.746-.546 1.17-.724.424-.176.886-.292 1.346-.228.66.09 1.398.546 1.696 1.166.062.14.3.634-.024.61-.076 0-.15-.052-.212-.09a3.584 3.584 0 0 0-2.032-.456 1.82 1.82 0 0 0-.836.28c-.248.177-.424.469-.386.773.012.18.1.342.2.496.155.261.374.48.636.634.598.328 1.308.176 1.956.152.32-.023.641.033.934.164a.845.845 0 0 1 .326.228c.124.152.2.508.36.494.212-.012.288-.494.324-.634.062-.214.076-.532.362-.62.424-.128.86-.24 1.296-.342.212-.052.436-.09.66-.128.15-.024.313-.076.463-.012.224.1.35.354.512.532.2.228.436.42.684.57.05.026.438.228.412.28-.038.076-.088.14-.124.216-1.122 1.888-1.42 2.878-1.708 4.006-.425 1.648-.287 3.41.748 3.627 1.42.304 2.88-2.245 3.204-4.705.212-1.66 0-3.64-.04-5.313 0 0 .4-.393.512-.508.288-.28.574-.57.848-.86.15-.154.286-.306.436-.446.112-.114.274-.24.324-.406.026-.1-.012-.252-.136-.266a.823.823 0 0 0-.212.09ZM9.986 22.331c-.236 2.485-1.346 2.7-1.844 2.523-.574-.216-.736-2.017.15-4.287.422-1.09.96-2.054 1.444-2.84.226 1.674.374 3.31.25 4.604Zm.286-15.358c-.324.749-.96 2.169-1.046 4.541-.05 1.56.186 3.46.424 5.339-.188.28-.386.558-.56.85-1.086-.774-1.62-2.399-1.696-4.909-.126-3.752 1.682-5.604 2.666-6.073.25-.128.374-.102.212.252Zm5.723 9.908c-.024.038-.074.062-.136.088-.156.03-.316.033-.474.012a2.19 2.19 0 0 1-.848-.202 1.09 1.09 0 0 1-.436-.356c-.05-.1-.1-.215-.05-.316.024-.064.086-.1.15-.14a1.124 1.124 0 0 1 .946 0c.3.128.548.355.774.596.1.1.136.228.074.318Zm6.957 5.452c-.238 2.485-1.346 2.7-1.834 2.523-.572-.216-.734-2.017.15-4.287.424-1.09.96-2.054 1.446-2.84.2 1.674.362 3.31.238 4.604Zm.286-15.358c-.324.749-.972 2.169-1.048 4.541-.048 1.56.188 3.46.424 5.339-.2.28-.386.558-.572.85-1.086-.774-1.62-2.399-1.696-4.909-.112-3.752 1.682-5.605 2.68-6.073.238-.128.36-.102.212.252Z" fill="#fff"/></svg>
